ix/bus_broken.svg

<svg viewBox="0 0 24 24" fill="none" xmlns="http://www.w3.org/2000/svg" height="1em" width="1em">
  <path d="M4 14.96V5.10001C4 3.40001 5.39001 2 7.10001 2H16.9C18.6 2 20 3.39001 20 5.10001V18.9C20 20.6 18.61 22 16.9 22H7.10001C5.40001 22 4 20.61 4 18.9" stroke="#292D32" stroke-width="1.5" stroke-linecap="round" stroke-linejoin="round"/>
  <path d="M18.5 13C19.33 13 20 12.33 20 11.5V9.5C20 8.67 19.33 8 18.5 8H5.5C4.67 8 4 8.67 4 9.5V11.5C4 12.33 4.67 13 5.5 13H14.03" stroke="#292D32" stroke-width="1.5" stroke-linecap="round" stroke-linejoin="round"/>
  <path d="M9.5 5H14.5" stroke="#292D32" stroke-width="1.5" stroke-linecap="round" stroke-linejoin="round"/>
  <path d="M8.49451 17.7H8.50349" stroke="#292D32" stroke-width="2.5" stroke-linecap="round" stroke-linejoin="round"/>
  <path d="M15.4945 17.7H15.5035" stroke="#292D32" stroke-width="2.5" stroke-linecap="round" stroke-linejoin="round"/>
</svg>

<svg viewBox="0 0 24 24" fill="none" xmlns="http://www.w3.org/2000/svg" height="1em" width="1em">
  <path d="M4 14.96V5.1C4 3.4 5.39 2 7.1 2h9.8C18.6 2 20 3.39 20 5.1v13.8c0 1.7-1.39 3.1-3.1 3.1H7.1C5.4 22 4 20.61 4 18.9" stroke="#292D32" stroke-width="1.5" stroke-linecap="round" stroke-linejoin="round"/>
  <path d="M18.5 13c.83 0 1.5-.67 1.5-1.5v-2c0-.83-.67-1.5-1.5-1.5h-13C4.67 8 4 8.67 4 9.5v2c0 .83.67 1.5 1.5 1.5h8.53M9.5 5h5" stroke="#292D32" stroke-width="1.5" stroke-linecap="round" stroke-linejoin="round"/>
  <path d="M8.495 17.7h.008m6.992 0h.009" stroke="#292D32" stroke-width="2.5" stroke-linecap="round" stroke-linejoin="round"/>
</svg>
